archdroid-icon-theme/Archdroid-Amber/mimetypes/scalable/image-png.svg

<svg fill="#673ab7" height="48" viewBox="0 0 48 48" width="48" xmlns="http://www.w3.org/2000/svg"><path d="m10 6c-2.21 0-4 1.79-4 4v28c0 2.21 1.79 4 4 4h28c2.21 0 4-1.79 4-4v-28c0-2.21-1.79-4-4-4zm7.365234 5.734375c.813802 0 1.446778.32373 1.898438.970703.455729.642904.683594 1.491048.683594 2.544922v.128906c0 .960287-.226075 1.734212-.677735 2.324219s-1.081054.886719-1.886719.886719c-.374348 0-.70524-.068848-.99414-.203125-.2889-.134278-.536621-.33138-.744141-.591797v3.205078h-1.484375v-9.142578h1.251953l.146485.830078c.211588-.309245.466634-.546224.763672-.708984.301106-.162761.648274-.244141 1.042968-.244141zm7.226563 0c.687663 0 1.222982.209798 1.605469.628906.386556.415039.580078 1.064291.580078 1.947266v4.150391h-1.484375v-4.138672c0-.49642-.103028-.847168-.310547-1.054688-.203451-.211588-.514486-.318359-.933594-.318359-.2889 0-.547526.065104-.77539.195312-.227865.12614-.414063.301595-.560547.525391v4.791016h-1.484375v-6.603516h1.355468l.085938.951172c.215657-.337728.485026-.599935.810547-.78711.32959-.191243.700358-.287109 1.111328-.287109zm6.066406 0c.394694 0 .742025.086914 1.039063.257813.301106.166829.554199.407226.761718.724609l.146485-.859375h1.234375v6.603516c0 .850423-.26416 1.506835-.789063 1.970703-.524902.463867-1.268066.697265-2.232422.697265-.321451 0-.670573-.047038-1.044921-.140625-.37028-.089518-.704753-.210774-1.00586-.361328l.316406-1.166015c.244141.126139.513672.223795.806641.292968.297038.073242.600749.111328.914063.111328.537109 0 .931477-.115722 1.179687-.347656.24821-.227864.371094-.580566.371094-1.05664v-.677735c-.20752.264486-.453451.465169-.738281.603516-.280762.134277-.604493.203125-.970704.203125-.809733 0-1.444498-.296712-1.904296-.886719-.459799-.590007-.689454-1.363932-.689454-2.324219v-.128906c0-1.049805.229655-1.897949.689454-2.544922.459798-.646973 1.098144-.970703 1.916015-.970703zm-13.707031 1.214844c-.309245 0-.571452.066894-.78711.201172-.215657.130208-.389322.312825-.519531.548828v2.986328c.130209.231933.303874.41097.519531.537109.215658.122071.481446.181641.798829.181641.504557 0 .880696-.184408 1.128906-.554688.252279-.374349.378906-.86442.378906-1.470703v-.128906c0-.675456-.128418-1.227051-.384765-1.654297-.252279-.431315-.630209-.646484-1.134766-.646484zm14.085937 0c-.508626 0-.886556.213379-1.134765.640625-.244141.427246-.367188.980631-.367188 1.660156v.128906c0 .606283.121257 1.092774.361328 1.458985.244141.362142.62028.542968 1.128907.542968.317382 0 .58317-.065104.798828-.195312.219726-.134277.396972-.326009.53125-.574219v-2.892578c-.138347-.240072-.317383-.428223-.53711-.5625-.215657-.138346-.476074-.207031-.78125-.207031zm-2.037109 11.050781 9 12h-28l7-9 5 6.009766z" fill="#673ab7"/></svg>

<svg fill="#673ab7" height="48" version="1.1" viewBox="0 0 48 48" width="48" xmlns="http://www.w3.org/2000/svg"><path d="M10 6C7.79 6 6 7.79 6 10L6 38C6 40.21 7.79 42 10 42L38 42C40.21 42 42 40.21 42 38L42 10C42 7.79 40.21 6 38 6L10 6zM17.365234 11.734375C18.179036 11.734375 18.812012 12.058105 19.263672 12.705078 19.719401 13.347982 19.947266 14.196126 19.947266 15.25L19.947266 15.378906C19.947266 16.339193 19.721191 17.113118 19.269531 17.703125 18.817871 18.293132 18.188477 18.589844 17.382812 18.589844 17.008464 18.589844 16.677572 18.520996 16.388672 18.386719 16.099772 18.252441 15.852051 18.055339 15.644531 17.794922L15.644531 21 14.160156 21 14.160156 11.857422 15.412109 11.857422 15.558594 12.6875C15.770182 12.378255 16.025228 12.141276 16.322266 11.978516 16.623372 11.815755 16.97054 11.734375 17.365234 11.734375zM24.591797 11.734375C25.27946 11.734375 25.814779 11.944173 26.197266 12.363281 26.583822 12.77832 26.777344 13.427572 26.777344 14.310547L26.777344 18.460938 25.292969 18.460938 25.292969 14.322266C25.292969 13.825846 25.189941 13.475098 24.982422 13.267578 24.778971 13.05599 24.467936 12.949219 24.048828 12.949219 23.759928 12.949219 23.501302 13.014323 23.273438 13.144531 23.045573 13.270671 22.859375 13.446126 22.712891 13.669922L22.712891 18.460938 21.228516 18.460938 21.228516 11.857422 22.583984 11.857422 22.669922 12.808594C22.885579 12.470866 23.154948 12.208659 23.480469 12.021484 23.810059 11.830241 24.180827 11.734375 24.591797 11.734375zM30.658203 11.734375C31.052897 11.734375 31.400228 11.821289 31.697266 11.992188 31.998372 12.159017 32.251465 12.399414 32.458984 12.716797L32.605469 11.857422 33.839844 11.857422 33.839844 18.460938C33.839844 19.311361 33.575684 19.967773 33.050781 20.431641 32.525879 20.895508 31.782715 21.128906 30.818359 21.128906 30.496908 21.128906 30.147786 21.081868 29.773438 20.988281 29.403158 20.898763 29.068685 20.777507 28.767578 20.626953L29.083984 19.460938C29.328125 19.587077 29.597656 19.684733 29.890625 19.753906 30.187663 19.827148 30.491374 19.865234 30.804688 19.865234 31.341797 19.865234 31.736165 19.749512 31.984375 19.517578 32.232585 19.289714 32.355469 18.937012 32.355469 18.460938L32.355469 17.783203C32.147949 18.047689 31.902018 18.248372 31.617188 18.386719 31.336426 18.520996 31.012695 18.589844 30.646484 18.589844 29.836751 18.589844 29.201986 18.293132 28.742188 17.703125 28.282389 17.113118 28.052734 16.339193 28.052734 15.378906L28.052734 15.25C28.052734 14.200195 28.282389 13.352051 28.742188 12.705078 29.201986 12.058105 29.840332 11.734375 30.658203 11.734375zM16.951172 12.949219C16.641927 12.949219 16.37972 13.016113 16.164062 13.150391 15.948405 13.280599 15.77474 13.463216 15.644531 13.699219L15.644531 16.685547C15.77474 16.91748 15.948405 17.096517 16.164062 17.222656 16.37972 17.344727 16.645508 17.404297 16.962891 17.404297 17.467448 17.404297 17.843587 17.219889 18.091797 16.849609 18.344076 16.47526 18.470703 15.985189 18.470703 15.378906L18.470703 15.25C18.470703 14.574544 18.342285 14.022949 18.085938 13.595703 17.833659 13.164388 17.455729 12.949219 16.951172 12.949219zM31.037109 12.949219C30.528483 12.949219 30.150553 13.162598 29.902344 13.589844 29.658203 14.01709 29.535156 14.570475 29.535156 15.25L29.535156 15.378906C29.535156 15.985189 29.656413 16.47168 29.896484 16.837891 30.140625 17.200033 30.516764 17.380859 31.025391 17.380859 31.342773 17.380859 31.608561 17.315755 31.824219 17.185547 32.043945 17.05127 32.221191 16.859538 32.355469 16.611328L32.355469 13.71875C32.217122 13.478678 32.038086 13.290527 31.818359 13.15625 31.602702 13.017904 31.342285 12.949219 31.037109 12.949219zM29 24L38 36 10 36 17 27 22 33.009766 29 24z"/></svg>
